assets/angle-up.svg

<svg xmlns="http://www.w3.org/2000/svg" viewBox="0 0 384 512"><path d="m23.497 294.547 152.002-143.985c4.625-4.374 10.563-6.562 16.5-6.562s11.875 2.188 16.5 6.562l152.002 143.985c9.625 9.125 10.031 24.312.938 33.933-9.125 9.688-24.375 10.032-33.938.938L191.999 201.055 56.497 329.418c-9.562 9.094-24.75 8.75-33.937-.938-9.094-9.621-8.688-24.808.937-33.933Z"/></svg>

<svg xmlns="http://www.w3.org/2000/svg" viewBox="0 0 384 512"><!-- Font Awesome Pro 6.0.0-alpha2 by @fontawesome - https://fontawesome.com License - https://fontawesome.com/license (Commercial License) --><path d="M23.497 294.547L175.499 150.562C180.124 146.188 186.062 144 191.999 144S203.874 146.188 208.499 150.562L360.501 294.547C370.126 303.672 370.532 318.859 361.439 328.48C352.314 338.168 337.064 338.512 327.501 329.418L191.999 201.055L56.497 329.418C46.935 338.512 31.747 338.168 22.56 328.48C13.466 318.859 13.872 303.672 23.497 294.547Z"/></svg>
